assets/web.svg

<?xml version="1.0" encoding="utf-8"?>
<!-- Generator: Adobe Illustrator 21.1.0, SVG Export Plug-In . SVG Version: 6.00 Build 0)  -->
<svg version="1.1" id="Layer_1" xmlns="http://www.w3.org/2000/svg" xmlns:xlink="http://www.w3.org/1999/xlink" x="0px" y="0px"
	 viewBox="0 0 20 16" style="enable-background:new 0 0 20 16;" xml:space="preserve">
<style type="text/css">
	.st0{fill:#001833;}
</style>
<path id="path-1_1_" class="st0" d="M18,0H2C0.9,0,0,0.9,0,2l0,12c0,1.1,0.9,2,2,2h16c1.1,0,2-0.9,2-2V2C20,0.9,19.1,0,18,0z M13,14
	H2v-4h11V14z M13,9H2V5h11V9z M18,14h-4V5h4V14z"/>
</svg>

<?xml version="1.0" encoding="UTF-8"?>
<svg width="20px" height="16px" viewBox="0 0 20 16" version="1.1" xmlns="http://www.w3.org/2000/svg" xmlns:xlink="http://www.w3.org/1999/xlink">
    <!-- Generator: Sketch 47.1 (45422) - http://www.bohemiancoding.com/sketch -->
    <title>Mask</title>
    <desc>Created with Sketch.</desc>
    <defs>
        <path d="M18,0 L2,0 C0.9,0 0.01,0.9 0.01,2 L0,14 C0,15.1 0.9,16 2,16 L18,16 C19.1,16 20,15.1 20,14 L20,2 C20,0.9 19.1,0 18,0 Z M13,14 L2,14 L2,10 L13,10 L13,14 Z M13,9 L2,9 L2,5 L13,5 L13,9 Z M18,14 L14,14 L14,5 L18,5 L18,14 Z" id="path-1"></path>
    </defs>
    <g id="Icons" stroke="none" stroke-width="1" fill="none" fill-rule="evenodd">
        <g id="extra-/-web" transform="translate(-2.000000, -4.000000)">
            <g id="web">
                <g id="Icon-🎨" transform="translate(2.000000, 4.000000)">
                    <mask id="mask-2" fill="white">
                        <use xlink:href="#path-1"></use>
                    </mask>
                    <use id="Mask" fill="#001833" fill-rule="nonzero" xlink:href="#path-1"></use>
                </g>
            </g>
        </g>
    </g>
</svg>
